views/img/visa.svg

<?xml version="1.0" encoding="UTF-8"?>
<svg width="75px" height="48px" viewBox="0 0 75 48" version="1.1" xmlns="http://www.w3.org/2000/svg" xmlns:xlink="http://www.w3.org/1999/xlink">
    <title>Logo_visa</title>
    <g id="Logo_visa" stroke="none" stroke-width="1" fill="none" fill-rule="evenodd">
        <rect id="Rectangle" stroke="#888888" fill="#FFFFFF" x="0.5" y="0.5" width="74" height="47" rx="6"></rect>
        <g id="Visa_Inc._logo" transform="translate(7.000000, 14.000000)" fill-rule="nonzero">
            <polygon id="polygon9" fill="#00579F" points="26.3611668 19.3220339 21.3559322 19.3220339 24.4865645 0 29.4915254 0"></polygon>
            <path d="M43.7288136,0.796313223 C42.7926553,0.417859479 41.3078309,0 39.4718499,0 C34.7848296,0 31.4842682,2.54682708 31.4640241,6.18802285 C31.4250932,8.87448904 33.8271295,10.3666176 35.6236606,11.2623708 C37.4599012,12.1776947 38.0840932,12.7751279 38.0840932,13.5910118 C38.0654064,14.8440613 36.600307,15.4216595 35.2338326,15.4216595 C33.3389361,15.4216595 32.3236183,15.1238685 30.7806572,14.4267308 L30.1556865,14.1278819 L29.4915254,18.3265763 C30.6046895,18.8433468 32.6555691,19.3019343 34.7848296,19.3220339 C39.7648697,19.3220339 43.0070348,16.8146126 43.0454466,12.9343377 C43.0643929,10.8051056 41.7960244,9.17360238 39.0615182,7.84041907 C37.4015048,6.98460054 36.3848894,6.40753131 36.3848894,5.53187768 C36.4043548,4.73582892 37.2447431,3.920474 39.1186169,3.920474 C40.661578,3.88053933 41.7952457,4.25846414 42.6540613,4.63665341 L43.0833393,4.8352689 L43.7288136,0.796313223 L43.7288136,0.796313223 L43.7288136,0.796313223 Z" id="path11" fill="#00579F"></path>
            <path d="M50.1660045,12.4771003 C50.5627788,11.3670594 52.0895431,7.07087594 52.0895431,7.07087594 C52.06952,7.11213023 52.485527,5.94034449 52.7234335,5.22098989 L53.0601384,6.88591466 C53.0601384,6.88591466 53.9725085,11.5110396 54.1706322,12.4771003 C53.4176568,12.4771003 51.1176305,12.4771003 50.1660045,12.4771003 L50.1660045,12.4771003 Z M56.11314,0 L52.3864652,0 C51.2372424,0 50.3641282,0.349158821 49.8682921,1.60317994 L42.7118644,19.3220339 L47.7671799,19.3220339 C47.7671799,19.3220339 48.5994574,16.9372081 48.7783484,16.4235785 C49.3329366,16.4235785 54.2507247,16.4235785 54.9641807,16.4235785 C55.1024985,17.1019521 55.5390556,19.3220339 55.5390556,19.3220339 L60,19.3220339 L56.11314,0 L56.11314,0 L56.11314,0 Z" id="path13" fill="#00579F"></path>
            <path d="M17.1887999,1.01694915 L12.3875528,13.5125163 L11.8628981,10.978269 C10.9752478,8.0540778 8.19138775,4.87700595 5.08474576,3.29727939 L9.48251545,19.3220339 L14.666865,19.3220339 L22.3728814,1.01694915 L17.1887999,1.01694915 L17.1887999,1.01694915 L17.1887999,1.01694915 Z" id="path15" fill="#00579F"></path>
            <path d="M8.17013596,0 L0.0827376417,0 L0,0.377960503 C6.30867646,1.93026995 10.4867899,5.67205248 12.2033898,10.1694915 L10.4452837,1.57241091 C10.1558394,0.37769601 9.26634099,0.0394094577 8.17013596,0 L8.17013596,0 Z" id="path17" fill="#FAA61A"></path>
        </g>
    </g>
</svg>

<?xml version="1.0" encoding="UTF-8" standalone="no"?>
<svg
   xmlns:dc="http://purl.org/dc/elements/1.1/"
   xmlns:cc="http://creativecommons.org/ns#"
   xmlns:rdf="http://www.w3.org/1999/02/22-rdf-syntax-ns#"
   xmlns:svg="http://www.w3.org/2000/svg"
   xmlns="http://www.w3.org/2000/svg"
   xmlns:sodipodi="http://sodipodi.sourceforge.net/DTD/sodipodi-0.dtd"
   xmlns:inkscape="http://www.inkscape.org/namespaces/inkscape"
   width="35"
   height="22"
   viewBox="0 0 35 22"
   version="1.1"
   id="svg12"
   sodipodi:docname="Logo_visa.svg"
   inkscape:version="1.0.2 (e86c870879, 2021-01-15)">
  <metadata
     id="metadata18">
    <rdf:RDF>
      <cc:Work
         rdf:about="">
        <dc:format>image/svg+xml</dc:format>
        <dc:type
           rdf:resource="http://purl.org/dc/dcmitype/StillImage" />
        <dc:title>Logo_visa</dc:title>
      </cc:Work>
    </rdf:RDF>
  </metadata>
  <defs
     id="defs16" />
  <sodipodi:namedview
     pagecolor="#ffffff"
     bordercolor="#666666"
     borderopacity="1"
     objecttolerance="10"
     gridtolerance="10"
     guidetolerance="10"
     inkscape:pageopacity="0"
     inkscape:pageshadow="2"
     inkscape:window-width="1920"
     inkscape:window-height="1006"
     id="namedview14"
     showgrid="false"
     inkscape:zoom="15.253333"
     inkscape:cx="37.5"
     inkscape:cy="24"
     inkscape:window-x="0"
     inkscape:window-y="0"
     inkscape:window-maximized="1"
     inkscape:current-layer="svg12" />
  <title
     id="title2">Logo_visa</title>
  <g
     id="Logo_visa"
     stroke="none"
     stroke-width="1"
     fill="none"
     fill-rule="evenodd"
     transform="matrix(0.46579015,0,0,0.45367422,0.03286948,-0.04991326)">
    <rect
       id="Rectangle"
       stroke="#888888"
       fill="#ffffff"
       x="0.5"
       y="0.5"
       width="74"
       height="47"
       rx="6" />
    <g
       id="Visa_Inc._logo"
       transform="translate(7,14)"
       fill-rule="nonzero">
      <polygon
         id="polygon9"
         fill="#00579f"
         points="26.361167,19.322034 21.355932,19.322034 24.486565,0 29.491525,0 " />
      <path
         d="M 43.728814,0.79631322 C 42.792655,0.41785948 41.307831,0 39.47185,0 c -4.68702,0 -7.987582,2.5468271 -8.007826,6.1880228 -0.03893,2.6864662 2.363105,4.1785952 4.159637,5.0743482 1.83624,0.915324 2.460432,1.512757 2.460432,2.328641 -0.01869,1.253049 -1.483786,1.830648 -2.85026,1.830648 -1.894897,0 -2.910215,-0.297791 -4.453176,-0.994929 l -0.62497,-0.298849 -0.664162,4.198694 c 1.113164,0.516771 3.164044,0.975358 5.293305,0.995458 4.98004,0 8.222205,-2.507421 8.260617,-6.387696 0.01895,-2.129232 -1.249423,-3.7607356 -3.983929,-5.0939189 -1.660013,-0.8558186 -2.676629,-1.4328878 -2.676629,-2.3085414 0.01947,-0.7960488 0.859854,-1.6114037 2.733728,-1.6114037 1.542961,-0.039935 2.676629,0.3379901 3.535444,0.7161794 l 0.429278,0.1986155 z"
         id="path11"
         fill="#00579f" />
      <path
         d="m 50.166004,12.4771 c 0.396775,-1.110041 1.923539,-5.4062241 1.923539,-5.4062241 -0.02002,0.041254 0.395984,-1.1305314 0.63389,-1.849886 l 0.336705,1.6649248 c 0,0 0.912371,4.6251253 1.110494,5.5911853 -0.752975,0 -3.053002,0 -4.004628,0 z M 56.11314,0 H 52.386465 C 51.237242,0 50.364128,0.34915882 49.868292,1.6031799 L 42.711864,19.322034 h 5.055316 c 0,0 0.832277,-2.384826 1.011168,-2.898455 0.554589,0 5.472377,0 6.185833,0 0.138318,0.678373 0.574875,2.898455 0.574875,2.898455 H 60 Z"
         id="path13"
         fill="#00579f" />
      <path
         d="M 17.1888,1.0169491 12.387553,13.512516 11.862898,10.978269 C 10.975248,8.0540778 8.1913878,4.8770059 5.0847458,3.2972794 L 9.4825154,19.322034 H 14.666865 L 22.372881,1.0169491 Z"
         id="path15"
         fill="#00579f" />
      <path
         d="M 8.170136,0 H 0.08273764 L 0,0.3779605 c 6.3086765,1.5523094 10.48679,5.294092 12.20339,9.7915305 L 10.445284,1.5724109 C 10.155839,0.37769601 9.266341,0.03940946 8.170136,0 Z"
         id="path17"
         fill="#faa61a" />
    </g>
  </g>
</svg>
